!!!CDT:
!!!PTL: Li Diversi Scherzi a una, due et tre voci. Libro secondo
!!!PPP: Rome
!!!PPR: Giovanni Battista Robletti
!!!PDT: 1613
!!!RISM: C 2215
!!!rime:
!!!AGN: Madrigal
!!!SCT: Tsg16061d
!!!SCA: Tsg16061d
!!!voices:
!!!COM: Cifra, Antonio
!!!OTL: Chiudesti i lumi Armida: il cielo avaro
**kern	**kern	**text	**kern	**text
*part3	*part2	*part2	*part1	*part1
*staff3	*staff2	*staff2	*staff1	*staff1
*I"[Basso continuo]	*I"[Canto II]	*	*I"[Canto I]	*
*I'Bc	*I'C II	*	*I'C I	*
*oclefF4	*oclefC1	*	*oclefC1	*
*clefF4	*clefG2	*	*clefG2	*
*k[b-]	*k[b-]	*	*k[b-]	*
*F:	*F:	*	*F:	*
*omet(C)	*omet(C)	*	*omet(C)	*
*M4/4	*M4/4	*	*M4/4	*
=1	=1	=1	=1	=1
!	!	!	!LO:TX:a:t=Aria di Romanesca seconda, à due Soprani. [Prima stanza.]	!
1BB-y	4r	.	4r	.
.	4b-y	Chiu-	4dd	Chiu-
.	[2dd	-de-	[2ff	-de-
=2	=2	=2	=2	=2
2BB-y	4dd]	.	4ff]	.
.	4cc	-sti i	4ee	-sti i
2BB-y	4b-y	lu-	4dd	lu-
.	4b-y	-m'Ar-	4dd	-m'Ar-
=3	=3	=3	=3	=3
2F	2a	-mi-	1cc	-mi-
4F	16a	-da: il	.	.
.	16aL	cie-	.	.
.	16f	.	.	.
.	16gJ	.	.	.
[4F	16aL	.	.	.
.	16b-y	.	.	.
.	16a	.	.	.
.	16b-yJ	.	.	.
=4	=4	=4	=4	=4
4F]	2cc	.	16a	-da: il
.	.	.	16ccL	cie-
.	.	.	16a	.
.	.	.	16b-yJ	.
4F	.	.	16ccL	.
.	.	.	16dd	.
.	.	.	16cc	.
.	.	.	16ddJ	.
2G	2b-y	-lo a-	2ee-X	.
=5	=5	=5	=5	=5
2D	4.a	-va-	2dd	-lo a-
.	8b-y	.	.	.
2E-X	2g	.	2cc	-va-
=6	=6	=6	=6	=6
2.D	1f#X	-ro	1a	-ro
4D	.	.	.	.
=7	=7	=7	=7	=7
4D	1r	.	2r	.
4C	.	.	.	.
[2BB-y	.	.	4r	.
.	.	.	8dd	In-
.	.	.	8dd	-vi-
=8	=8	=8	=8	=8
4BB-]	4r	.	2.dd	-diò'l
4AA	8b-y	In-	.	.
.	8b-y	-vi-	.	.
2GG	4b-y	-diò'l	.	.
.	4g	con-	4b-y	con-
=9	=9	=9	=9	=9
1FF	2a	-for-	[1cc	-for-
.	2a	-to	.	.
=10	=10	=10	=10	=10
2F	2r	.	4cc]	.
.	.	.	2dd	-t'ai
2G	4r	.	.	.
.	[4ee-X	ai	8g	tuoi
.	.	.	8g	mar-
=11	=11	=11	=11	=11
2C	4ee-]	.	2.g	-ti-
.	8a	tuoi	.	.
.	8a	mar-	.	.
2D	2a	-ti-	.	.
.	.	.	4f#X	.
=12	=12	=12	=12	=12
4GG	2g	-ri,	2g	-ri,
2G	.	.	.	.
.	2r	.	2r	.
4F#X	.	.	.	.
=13	=13	=13	=13	=13
4G	4r	.	4r	.
4A	8dd	In-	8ff	In-
.	8dd	-vi-	8ff	-vi-
[2B-y	4dd	-diò'l	[2ff	-diò'l
.	4cc	con-	.	.
=14	=14	=14	=14	=14
4B-]	2b-y	-for-	4ff_	.
4A	.	.	8ff]	.
.	.	.	8cc	con-
2G	[2a	-to	2ee-X	-for-
=15	=15	=15	=15	=15
1F	2a]	.	2.cc	-to ai
.	4r	.	.	.
.	[4dd	ai	[4ff	.
=16	=16	=16	=16	=16
2F	8dd]L	.	8ff]L	.
.	16cc	.	16ee	.
.	16b-yJ	.	16ddJ	.
.	16aL	.	16ccL	.
.	16g	.	16b-y	.
.	8fJ	.	8aJ	.
2G	2r	.	2b-y	tuoi
=17	=17	=17	=17	=17
2C	4.g	tuoi	4e	mar-
.	.	.	2g	-ti-
.	8a	mar-	.	.
2D	2a	-ti-	.	.
.	.	.	4f#X	.
=18	=18	=18	=18	=18
1GG	1g	-ri.	1g	-ri.
=19||	=19||	=19||	=19||	=19||
!	!	!	!LO:TX:a:t=Seconda stanza.	!
1BB-y	2r	.	[2f	A-
.	[2d	A-	8f]L	.
.	.	.	16g	.
.	.	.	16aJ	.
.	.	.	16b-yL	.
.	.	.	16cc	.
.	.	.	16dd	.
.	.	.	16eeJ	.
=20	=20	=20	=20	=20
2BB-y	8d]L	.	2.ff	.
.	16e	.	.	.
.	16fJ	.	.	.
.	16gL	.	.	.
.	16a	.	.	.
.	16b-y	.	.	.
.	16ccJ	.	.	.
2BB-y	4dd	.	.	.
.	4b-y	-pri,	4f	-pri,
=21	=21	=21	=21	=21
2F	4cc	mi-	4a	mi-
.	8cc	-se-	8a	-se-
.	8cc	-ra,	8a	-ra,
4F	4cc	gl'oc-	4a	gl'oc-
[4F	4cc	-chi:	4a	-chi:
=22	=22	=22	=22	=22
4F]	8r	.	4r	.
.	16aL	il	.	.
.	16gJ	.	.	.
4F	16aL	.	8r	.
.	16f	.	.	.
.	16g	.	16ddL	il
.	16aJ	.	16ccJ	.
2G	2b-y	pian-	16ddL	.
.	.	.	16b-y	.
.	.	.	16cc	.
.	.	.	16ddJ	.
.	.	.	[4ee-X	pian-
=23	=23	=23	=23	=23
2D	2a	-t'a-	4ee-]	.
.	.	.	2dd	-t'a-
2E-X	2g	-ma-	.	.
.	.	.	16ccL	-ma-
.	.	.	16b-y	.
.	.	.	16a	.
.	.	.	16gJ	.
=24	=24	=24	=24	=24
2.D	2f#X	-ro	2a	-ro
.	2r	.	4r	.
4D	.	.	8ff	ne
.	.	.	8eenXi	gl'oc-
=25	=25	=25	=25	=25
4D	2r	.	8ff	-chi al
.	.	.	8dd	tuo
4C	.	.	8ee-XL	.
.	.	.	8ccJ	.
[2BB-y	4r	.	8ddL	.
.	.	.	8eenXiJ	.
.	8dd	ne	[4ff	.
.	8cc	gl'oc-	.	.
=26	=26	=26	=26	=26
4BB-]	8dd	-chi al	4ff]	.
.	8b-y	tuo	.	.
4AA	8ccL	.	4f	.
.	8aJ	.	.	.
2GG	8b-yL	.	4.f	ne-
.	8aJ	.	.	.
.	4b-y	ne-	.	.
.	.	.	8enXi	-mi-
=27	=27	=27	=27	=27
1FF	2a	-mi-	1f	-co
.	[2dd	-co hor	.	.
=28	=28	=28	=28	=28
2F	4dd]	.	2r	.
.	8cc	.	.	.
.	8cc	ché	.	.
2G	8b-yL	non	[2b-y	hor
.	8aJ	.	.	.
.	8gL	.	.	.
.	8fJ	.	.	.
=29	=29	=29	=29	=29
2C	8eL	mi-	4b-]	.
.	8fJ	.	.	.
.	2g	.	8a	ché
.	.	.	8a	non
2D	.	.	2a	mi-
.	4f#X	.	.	.
=30	=30	=30	=30	=30
4GG	2g	-ri,	2g	-ri,
2G	.	.	.	.
.	2r	.	4r	.
4F#X	.	.	4dd	ne
=31	=31	=31	=31	=31
4G	2r	.	4ee	gl'oc-
4A	.	.	4cc	-chi al
[2B-y	4r	.	8ddL	tuo
.	.	.	8eeJ	.
.	4dd	ne	8ffL	.
.	.	.	8eeJ	.
=32	=32	=32	=32	=32
4B-]	4ee	gl'oc-	8ddL	.
.	.	.	8dJ	.
4A	4cc	-chi al	2f	.
2G	4.b-y	tuo	.	.
.	.	.	4e	ne-
.	8g	ne-	.	.
=33	=33	=33	=33	=33
1F	4a	-mi	2f	-mi-
.	8ccL	co hor	.	.
.	8b-yJ	.	.	.
.	8aL	.	8ccL	-co hor
.	8gJ	.	8b-yJ	.
.	4f	.	8aL	.
.	.	.	8gJ	.
=34	=34	=34	=34	=34
2F	8ffL	ché	4f	.
.	8eeJ	.	.	.
.	8ddL	.	8ffL	ché
.	8ccJ	.	8eeJ	.
2G	8b-yL	.	8ddL	.
.	8aJ	.	8ccJ	.
.	8gL	.	8b-yL	.
.	8fJ	.	8aJ	.
=35	=35	=35	=35	=35
2C	8e	.	4.g	.
.	8e	non	.	.
.	2g	mi-	.	.
.	.	.	8a	non
2D	.	.	2a	mi-
.	4f#X	.	.	.
=36	=36	=36	=36	=36
1GG	1g	-ri?	1g	-ri?
=37||	=37||	=37||	=37||	=37||
!	!	!	!LO:TX:a:t=Terza stanza.	!
1BB-y	2r	.	4r	.
.	.	.	8b-y	O
.	.	.	8cc	s'u-
.	4r	.	2dd	-dir,
.	8b-y	O	.	.
.	8cc	s'u-	.	.
=38	=38	=38	=38	=38
2BB-y	2dd	-dir	4r	.
.	.	.	8dd	<O
.	.	.	8ee	s'u-
2BB-y	4.dd	tu'l	4ff	-dir>
.	.	.	8f	tu'l
.	8b-y	po-	8f	po-
=39	=39	=39	=39	=39
2F	2cc	-tes-	2a	-tes-
4F	2cc	-si,	4a	-si,
[4F	.	.	[4ff	o
=40	=40	=40	=40	=40
4F]	4r	.	8ff]L	.
.	.	.	16ee	.
.	.	.	16ddJ	.
4F	4.cc	o	4cc	.
2G	.	.	2ee-X	co-
.	16b-yL	.	.	.
.	16aJ	.	.	.
.	4g	.	.	.
=41	=41	=41	=41	=41
2D	4b-y	co-	4dd	-me
.	4a	-me	4.dd	ca-
2E-X	2g	ca-	.	.
.	.	.	16eenXiL	.
.	.	.	16ddJ	.
.	.	.	4cc	.
=42	=42	=42	=42	=42
2.D	1a	-ro	1dd	-ro
4D	.	.	.	.
=43	=43	=43	=43	=43
4D	1r	.	4r	.
4C	.	.	2ee-X	T'a-
[2BB-y	.	.	.	.
.	.	.	8dd	-dol-
.	.	.	8cc	-ci-
=44	=44	=44	=44	=44
4BB-]	2r	.	4dd	-reb-
4AA	.	.	4cc	-b'il
2GG	4r	.	8b-yL	suon
.	.	.	16cc	.
.	.	.	16ddJ	.
.	[4b-y	T'a-	8ccL	.
.	.	.	8b-yJ	.
=45	=45	=45	=45	=45
1FF	4b-]	.	1cc	.
.	8a	-dol-	.	.
.	8g	-ci-	.	.
.	4a	-reb-	.	.
.	4g	-b'il	.	.
=46	=46	=46	=46	=46
2F	4f	suon	2a	de'
.	4e	de'	.	.
2G	2d	miei	[2b-y	miei
=47	=47	=47	=47	=47
2C	16eL	so-	4b-]	.
.	16d	.	.	.
.	16e	.	.	.
.	16fJ	.	.	.
.	16gL	.	8r	.
.	16e	.	.	.
.	16f	.	8a	so-
.	16gJ	.	.	.
2D	2f#X	-spi-	2a	-spi-
=48	=48	=48	=48	=48
4GG	2g	-ri,	2g	-ri,
2G	.	.	.	.
.	2r	.	2r	.
4F#X	.	.	.	.
=49	=49	=49	=49	=49
4G	2r	.	4r	.
4A	.	.	2ff	T'a-
[2B-y	4r	.	.	.
.	[4ff	T'a-	8dd	-dol-
.	.	.	8cc	-ci-
=50	=50	=50	=50	=50
4B-]	4ff]	.	8dd	-reb-
!	!	!	!LO:TX:b:t=Quarta ed ultima stanza.	!
.	.	.	8ee	.
4A	8cc	-dol-	2ff	.
.	8a	-ci-	.	.
2G	4.b-y	-reb-	.	.
.	.	.	4ee	-b'il
.	8a	-b'il	.	.
=51	=51	=51	=51	=51
1F	2a	suon	1ff	suon
.	4r	.	.	.
.	8ccL	de'	.	.
.	8b-yJ	.	.	.
=52	=52	=52	=52	=52
2F	8ccL	.	4r	.
.	8b-yJ	.	.	.
.	8b-yL	.	8ddL	de'
.	8aJ	.	8ccJ	.
2G	2b-y	miei	8ddL	.
.	.	.	8ccJ	.
.	.	.	8ccL	.
.	.	.	8b-yJ	.
=53	=53	=53	=53	=53
2C	16aL	so-	4cc	miei
.	16g	.	.	.
.	16a	.	.	.
.	16b-yJ	.	.	.
.	2g	-spi-	16b-yL	so-
.	.	.	16a	.
.	.	.	16b-y	.
.	.	.	16ccJ	.
2D	.	.	2a	-spi-
.	4f#i	.	.	.
=54	=54	=54	=54	=54
1GG	1g	-ri.	1g	-ri.
=55||	=55||	=55||	=55||	=55||
1BB-y	2r	.	4r	.
.	.	.	4f	Dà
.	4f	Dà	4b-y	quan-
.	4b-y	quan-	4dd	-t'ei
=56	=56	=56	=56	=56
2BB-y	4dd	-t'ei	4ff	puo-
.	4ff	puo-	4b-y	-t'e
2BB-y	4f	-t'e	2dd	pren-
.	[4b-y	pren-	.	.
=57	=57	=57	=57	=57
2F	4b-]	.	2cc	-de,
.	4a	-de,	.	.
4F	2r	.	4r	.
[4F	.	.	4cc	e
=58	=58	=58	=58	=58
4F]	2r	.	8dd	tu
.	.	.	16ccL	no'l
.	.	.	16b-yJ	.
4F	.	.	4a	.
2G	4r	.	8b-yL	ve-
.	.	.	8ccJ	.
.	4g	e	8b-yL	.
.	.	.	8ccJ	.
=59	=59	=59	=59	=59
2D	8b-y	tu	2.dd	.
.	16aL	no'l	.	.
.	16gJ	.	.	.
.	4f#X	.	.	.
2E-X	2g	ve-	.	.
.	.	.	4cc	.
=60	=60	=60	=60	=60
2.D	1f#X	-di,	1dd	-di,
4D	.	.	.	.
=61	=61	=61	=61	=61
4D	2r	.	2r	.
4C	.	.	.	.
[2BB-y	2fnXi	Pie-	4r	.
.	.	.	4dd	Pie-
=62	=62	=62	=62	=62
4BB-]	4g	-to-	4dd	-to-
4AA	4a	-s'in-	4cc	-s'in
2GG	[2b-y	-vi-	2ee-X	vi-
=63	=63	=63	=63	=63
1FF	2b-]	.	2cc	-sta
.	2a	-sta	4.cc	gl'ul-
.	.	.	8b-y	-ti-
=64	=64	=64	=64	=64
2F	4.f	gl'ul-	2a	-mi,
.	8e	-ti-	.	.
2G	4d	-mi	4.g	gl'ul-
.	4b-y	con-	.	.
.	.	.	8f	-ti-
=65	=65	=65	=65	=65
2C	1a	-ge-	8e	-mi
.	.	.	8e	con-
.	.	.	2g	-ge-
2D	.	.	.	.
.	.	.	4f#X	.
=66	=66	=66	=66	=66
4GG	2g	-di,	2g	-di,
2G	.	.	.	.
.	2r	.	2r	.
4F#X	.	.	.	.
=67	=67	=67	=67	=67
4G	1r	.	4r	.
4A	.	.	4cc	Pie-
[2B-y	.	.	[2dd	-to-
=68	=68	=68	=68	=68
4B-]	4r	.	4dd]	.
4A	4cc	Pie-	4cc	-s'in
2G	4dd	-to-	[2b-y	vi-
.	4b-y	-s'in	.	.
=69	=69	=69	=69	=69
1F	2cc	vi-	2b-]	.
.	2cc	-sta	2a	-sta
=70	=70	=70	=70	=70
2F	4.ff	gl'ul-	4r	.
.	.	.	4.dd	gl'ul-
.	8ee	-ti-	.	.
2G	2dd	-mi	.	.
.	.	.	8cc	-ti-
.	.	.	4b-y	-mi
=71	=71	=71	=71	=71
2C	16ccL	con-	16aL	con-
.	16dd	.	16b-y	.
.	16ee	.	16cc	.
.	16ddJ	.	16b-yJ	.
.	16ccL	.	2g	.
.	16a	.	.	.
.	16b-y	.	.	.
.	16ccJ	.	.	.
2D	2a	-ge-	.	.
.	.	.	4f#i	-ge-
=72	=72	=72	=72	=72
1GGl	1gl	-di.	1gl	-di.
==	==	==	==	==
*-	*-	*-	*-	*-
!!!system-decoration: [*]
!!!RDF**kern: i = editorial accidental
!!!RDF**kern: l = terminal long
!!!ENC: Emiliano Ricciardi
!!!END:
!!!EED: Ricciardi, Emiliano
!!!EEV: 2020/07/28
!!!YEC: Copyright 2018 Emiliano Ricciardi, All Rights Reserved
!!!ONB: Translated from MusicXML on 2020/07/28
!!@@BEGIN:	VERSEDATA
!!@CATALOGNUM:	Tsg16061
!!@LAST_MODIFIED: 2020/07/12
!!@TITLE:		Chiudesti i lumi, Armida: il Cielo avaro
!!@CANTO:		XVI
!!@OTTAVA:	61
!!@MANUSRC:	G-Al, G-Au, G-Br<sub>1</sub>, G-Br<sub>2</sub>, G-Cv, G-Es<sub>1</sub>, G-Es<sub>2</sub>, G-Es<sub>3</sub>, G-F, G-Fr, G-Fr<sub>1</sub>, G-Fr<sub>2</sub>, G-Mc<sub>1</sub>, G-Mg, G-Mr, G-Mt, G-N, G-Ol
!!@PRINTSRC:	G-1580CM, G-1581B, G-1581CV, G-1581R, G-1581MR, G-1581P, G-1581V, G-1581V<sub>bis</sub>, G-1582C, G-1582M, G-1582MC, G-1582P, G-1582SC, G-1582SC<sub>bis</sub>, G-1583S, G-1584O, G-1584S, G-1585C, G-1585S, G-1588S, G-1589S, G-1590B, G-1590S, G-1592S, G-1593S, G-1594C, G-1595C, G-1597C, G-1598C, G-1599C, G-1600C, G-1600S, G-1601C, G-1601R, G-1602C, G-1604C, G-1604Cl, G-1604F, G-1604P, G-1606B, G-1606B<sub>bis</sub>, G-1606L, G-1607ZR, G-1608DP, G-1609GC, G-1610M, G-1611S, G-1611V, G-1612P, G-1613M, G-1613P, G-1613V, G-1615P, G-1616M, G-1617P, G-1619B, G-1619V, G-1620M, G-1620S, G-1621R, G-1624I, G-1624MT, G-1625C, G-1625S, G-1625SS, G-1626C, G-1626Co, G-1627M, G-1628T, G-1628Tu, G-1630L, G-1630T, G-1632FT, G-1639CF, G-1642M, G-1643I, G-1644P, G-1644S
!!@@BEGIN:	VERSES
!!@ABOUTIT:
!!@ABOUTEN:
!!@EDITOR:	Angelo Solerti
!!@EDITION_TITLE: Gerusalemme liberata. Poema eroico di Torquato Tasso. Edizione critica sui manoscritti e le prime stampe.
!!@EDITION_LOC:	Florence
!!@EDITION_PUB:	G. Barbera
!!@EDITION_DATE:  1895
!!@EDITION_VOL:
!!@EDITION_PAGE:
!!@TRANSLATOR:	Emiliano Ricciardi and Amyrose McCue Gill
!!@VERSE:
!!	Chiudesti i lumi, Armida: il Cielo avaro
!!	Invidiò il conforto a’ tuoi martìri.
!!	Apri, misera, gli occhi; il pianto amaro
!!	Negli occhi al tuo nemico or che non miri?
!!	O s’udir tu ’l potessi, o come caro
!!	T’addolcirebbe il suon de’ suoi sospiri!
!!	Dà quanto ei puote; ei prende (e tu nol credi)
!!	Pietoso in vista gli ultimi congedi.
!!@TVERSE:
!!	You closed your eyes, Armida: ungenerous Heaven
!!	Begrudged [any] comfort for your torments.
!!	Open, miserable woman, your eyes; the bitter lament
!!	In the eyes of your enemy now why do you not see?
!!	Oh if you were able to hear it, oh, how dear
!!	To you would sweeten the sound of his sighs!
!!	He gives what he can; he bids (and you do not believe it),
!!	Compassionate in appearance, the last farewells.
!!@@END:		VERSES
!!@OTHER_CRIT_ED:  Torquato Tasso, <i>Gerusalemme liberata</i>, ed. Lanfranco Caretti, 2 vols. (Bari: Laterza, 1967).
!!@ATTRIBUTION_ABOUT:
!!@DATING:	mid-1560s through 1570s
!!@DEDICATEE:	Duke Alfonso II d'Este
!!@COMMENTARY:
!!@@END:		VERSEDATA
!!@@BEGIN: SETTING
!!@CATALOGNUM:	Tsg16061d
!!@CANTO:		XVI
!!@OTTAVA:	61
!!@TITLE:	Chiudesti i lumi Armida: il cielo avaro
!!@SETTINGTITLE: Chiudesti i lum'Armida: il cielo avaro
!!@COMPOSER:	Cifra, Antonio
!!@PARTS:		4 (verses 1-2; 3-4; 5-6; 7-8)
!!@PRINCEPSTITLE:	Li Diversi Scherzi a una, due et tre voci. Libro secondo
!!@PRINCEPSLOC:	Rome
!!@NORMLOC:	Rome
!!@NORMPUB:	Giovanni Battista Robletti
!!@NORMPUBSHORT:	Robletti
!!@PRINCEPSPUB:	Giovanni Battista Robletti
!!@PRINCEPSYEAR:	1613
!!@PRINCEPSRISM:	C 2215
!!@OVOICES:	2+bc
!!@EXTANTVOICES:	2+bc
!!@OMENSURATION:	C
!!@OCLEFS:	C1,C1,F4
!!@OTIME:		
!!@OKEYSIG:	b-
!!@FINAL:		(G)(G)(G)G
!!@TIMPEDITOR:	Ricciardi, Emiliano
!!@REPRINTS:	
!!@@END: SETTING
